X:184
T:Up at Dawn* (march)
B:NFID.088a  ("untitled march")
184up_dawn
S:JD
L:1/8
M:C
R:march
Q:280
K:Am
BG|A2e2e2 dB|d2e^f gea2|A2e2e2 dB|g2ed B2AG|
A2e2e2 dB|d2e^f gea2|gedB g2ed|B2A2A2:|
BG|A2a2a2 ge|d2e^f gea2|A2a2a2 ge|dged B2A2|
A2a2a2 ge|d2e^f gea2|gedB g2ed|B2A2A2:|

%%%

